X: 18063
T: Humours Of Ballinamult, The
R: jig
M: 6/8
K: Edorian
|:=c|B^AB E2 G|BAG FED|B^AB EFE|B^AB dc=A|
B^AB EFE|BB/A/G FED|ADA FDA|F^EF A2:|
|:D|EE/E/E E2 F|DD/D/D D2 F|EE/E/E E2 d|B^AB BAF|
EE/E/E E2 F|DD/D/D DFG|ADA FDA|F^EF A2:|
|:d|B2 c d2 e|fdB ADA|B2 c d2 e|fag fec|
B2 c d2 e|fdB ADA|DD/D/D FDA|F^EF A2:|

